X:1
T:Pretty Baby
C:Egbert Van Alstyne
M:4/4
L:1/4
Q:1/4=100
K:F
% A section - 16 bars (chorus melody)
C E G A | B A G F | E D C D | E2 z2 |
F G A B | c d c B | A G F G | A2 z2 |
C E G A | B c d c | B A G F | E D C2 |
F A c A | F E D E | F2 C2 | F4 |]
